X: 36471
T: See It There
R: reel
M: 4/4
K: Dmixolydian
E|D2 FA dfeg|fdef dcAG|E2 CD EGAB|A/B/A GE cAGE|
D2 FA dfef|ecGF E/F/G cE|F/E/D Ac BGAd|GcEG FDD:|
g|fd e/f/g f/g/a ge|dcAG FDDF|G/F/E cE dE A/B/c|d2 AG FDDg|
fd e/f/g f/g/a ge|dcAG FDAc|BGAd Gc E/F/G|cGEG FDD:|

